src/assets/decorations/umbrella.svg

<svg viewBox="0 0 128 122" fill="none" xmlns="http://www.w3.org/2000/svg">
<path d="M89 18L102 46C76.706 44.0031 51.294 44.0031 26 46L39 18L64 2L89 18Z" fill="#4C1D95"/>
<path d="M64 2L39 18L26 46L21.4045 45.3435C15.1427 44.449 8.82536 44 2.5 44L2.49029 43.9515C2.17456 42.3728 1.28793 40.9659 0 40L64 2Z" fill="#4C1D95"/>
<path d="M64 2L39 18L26 46L21.4045 45.3435C15.1427 44.449 8.82536 44 2.5 44L2.49029 43.9515C2.17456 42.3728 1.28793 40.9659 0 40L64 2Z" fill="#00FF00" fill-opacity="0.2"/>
<path d="M64 2L89 18L102 46L106.595 45.3435C112.857 44.449 119.175 44 125.5 44L125.51 43.9515C125.825 42.3728 126.712 40.9659 128 40L64 2Z" fill="#5B21B6"/>
<path d="M64 2L89 18L102 46L106.595 45.3435C112.857 44.449 119.175 44 125.5 44L125.51 43.9515C125.825 42.3728 126.712 40.9659 128 40L64 2Z" fill="#A78BFA" fill-opacity="0.2"/>
<rect x="62" y="3" width="4" height="36" fill="#101828"/>
<rect width="4" height="3" transform="matrix(1 0 0 -1 62 3)" fill="#4B5563"/>
<path d="M54 102V100H50V102H54ZM52 102H50V114H52H54V102H52ZM64 114H66V39H64H62V114H64ZM58 120V122C62.4183 122 66 118.418 66 114H64H62C62 116.209 60.2091 118 58 118V120ZM52 114H50C50 118.418 53.5817 122 58 122V120V118C55.7909 118 54 116.209 54 114H52Z" fill="#4B5563"/>
<path d="M33 7L64 2L45 16L33 37L32.828 36.9696C21.8112 35.0255 10.4747 36.072 0 40L5.87918 29.4175C8.61305 24.4965 12.0194 19.9806 16 16L33 7Z" fill="#A78BFA"/>
<path d="M95 7L64 2L83 16L95 37L95.172 36.9696C106.189 35.0255 117.525 36.072 128 40L122.121 29.4175C119.387 24.4965 115.981 19.9806 112 16L95 7Z" fill="#DDD6FE"/>
<path d="M83 16L95 37C74.7514 31.1214 53.2486 31.1214 33 37L45 16L64 2L83 16Z" fill="#C4B5FD"/>
</svg>

<svg xmlns="http://www.w3.org/2000/svg" fill="none" viewBox="0 0 128 122">
  <path fill="#4C1D95" d="m64 2 64 38a6.54 6.54 0 0 0-2.49 3.95l-.01.05h-1.32A124 124 0 0 0 102 46c-25.3-2-50.7-2-76 0l-4.6-.66C15.14 44.44 8.83 44 2.5 44l-.01-.05A6.54 6.54 0 0 0 0 40L64 2Z"/>
  <path fill="#4C1D95" d="M64 2 39 18 26 46l-4.6-.66C15.14 44.44 8.83 44 2.5 44l-.01-.05A6.54 6.54 0 0 0 0 40L64 2Z"/>
  <path fill="#0F0" fill-opacity=".2" d="M64 2 39 18 26 46l-4.6-.66C15.14 44.44 8.83 44 2.5 44l-.01-.05A6.54 6.54 0 0 0 0 40L64 2Z"/>
  <path fill="#5B21B6" d="m64 2 25 16 13 28 4.6-.66A133.7 133.7 0 0 1 125.5 44l.01-.05A6.54 6.54 0 0 1 128 40L64 2Z"/>
  <path fill="#A78BFA" fill-opacity=".2" d="m64 2 25 16 13 28 4.6-.66A133.7 133.7 0 0 1 125.5 44l.01-.05A6.54 6.54 0 0 1 128 40L64 2Z"/>
  <path fill="#4B5563" d="M54 102v-2h-4v2h4Zm-2 0h-2v12h4v-12h-2Zm12 12h2V0h-4v114h2Zm-6 6v2a8 8 0 0 0 8-8h-4a4 4 0 0 1-4 4v2Zm-6-6h-2a8 8 0 0 0 8 8v-4a4 4 0 0 1-4-4h-2Z"/>
  <path fill="#101828" d="M62 3h4v36h-4z"/>
  <path fill="#C4B5FD" d="m33 7 31-5 31 5 17 9a60.58 60.58 0 0 1 10.12 13.42L128 40a62.54 62.54 0 0 0-32.83-3.03L95 37a111.19 111.19 0 0 0-62 0l-.17-.03A62.54 62.54 0 0 0 0 40l5.88-10.58A60.58 60.58 0 0 1 16 16l17-9Z"/>
  <path fill="#A78BFA" d="m33 7 31-5-19 14-12 21-.17-.03A62.54 62.54 0 0 0 0 40l5.88-10.58A60.58 60.58 0 0 1 16 16l17-9Z"/>
  <path fill="#DDD6FE" d="M95 7 64 2l19 14 12 21 .17-.03A62.54 62.54 0 0 1 128 40l-5.88-10.58A60.58 60.58 0 0 0 112 16L95 7Z"/>
</svg>
